documentation/public/assets/images/checkbox-dos-and-donts-01.svg

<svg width="248" height="18" viewBox="0 0 248 18" fill="none" xmlns="http://www.w3.org/2000/svg">
<rect x="0.497559" y="2" width="16" height="16" rx="3" fill="#1E71F6"/>
<path d="M11.9775 5.34229C12.2382 4.98299 12.757 4.89197 13.1363 5.13899C13.5155 5.386 13.6116 5.87751 13.3509 6.2368L7.23984 14.6578C6.90585 15.118 6.18681 15.1132 5.85979 14.6485L3.6376 11.4906C3.38231 11.1278 3.48579 10.6376 3.86872 10.3958C4.25166 10.1539 4.76904 10.252 5.02433 10.6147L6.56377 12.8024L11.9775 5.34229Z" fill="white"/>
<path d="M27.1089 3.93457C28.3986 3.93457 29.3397 4.1875 29.9321 4.69336C30.5291 5.19466 30.8276 5.91471 30.8276 6.85352C30.8276 7.27734 30.757 7.68066 30.6157 8.06348C30.479 8.44173 30.2557 8.77669 29.9458 9.06836C29.6359 9.35547 29.228 9.58333 28.7222 9.75195C28.2209 9.91602 27.6056 9.99805 26.8765 9.99805H25.6597V13.9287H24.4976V3.93457H27.1089ZM26.9995 4.92578H25.6597V9H26.7466C27.3846 9 27.9155 8.93164 28.3394 8.79492C28.7677 8.6582 29.089 8.43717 29.3032 8.13184C29.5174 7.82194 29.6245 7.41178 29.6245 6.90137C29.6245 6.236 29.4126 5.74154 28.9888 5.41797C28.5649 5.08984 27.9019 4.92578 26.9995 4.92578Z" fill="black"/>
<path d="M35.5513 6.31348C36.4445 6.31348 37.1076 6.514 37.5405 6.91504C37.9735 7.31608 38.1899 7.95638 38.1899 8.83594V13.9287H37.3628L37.144 12.8213H37.0894C36.8797 13.0947 36.661 13.3249 36.4331 13.5117C36.2052 13.694 35.9409 13.833 35.6401 13.9287C35.3439 14.0199 34.9793 14.0654 34.5464 14.0654C34.0907 14.0654 33.6851 13.9857 33.3296 13.8262C32.9787 13.6667 32.7007 13.4251 32.4956 13.1016C32.2951 12.778 32.1948 12.3678 32.1948 11.8711C32.1948 11.1237 32.491 10.5495 33.0835 10.1484C33.6759 9.7474 34.5783 9.52865 35.7905 9.49219L37.0825 9.4375V8.97949C37.0825 8.33236 36.9435 7.87891 36.6655 7.61914C36.3875 7.35938 35.9956 7.22949 35.4897 7.22949C35.0978 7.22949 34.7241 7.28646 34.3687 7.40039C34.0132 7.51432 33.6759 7.64876 33.3569 7.80371L33.0083 6.94238C33.3455 6.76921 33.7329 6.62109 34.1704 6.49805C34.6079 6.375 35.0682 6.31348 35.5513 6.31348ZM37.0688 10.2373L35.9272 10.2852C34.993 10.3216 34.3345 10.4743 33.9517 10.7432C33.5688 11.012 33.3774 11.3926 33.3774 11.8848C33.3774 12.3132 33.5073 12.6299 33.7671 12.835C34.0269 13.04 34.3709 13.1426 34.7993 13.1426C35.4647 13.1426 36.0093 12.958 36.4331 12.5889C36.8569 12.2197 37.0688 11.666 37.0688 10.9277V10.2373Z" fill="black"/>
<path d="M43.9321 6.2998C44.0825 6.2998 44.2397 6.30892 44.4038 6.32715C44.5679 6.34082 44.7137 6.36133 44.8413 6.38867L44.6978 7.44141C44.5747 7.40951 44.438 7.38444 44.2876 7.36621C44.1372 7.34798 43.9959 7.33887 43.8638 7.33887C43.563 7.33887 43.2782 7.40039 43.0093 7.52344C42.745 7.64193 42.5125 7.8151 42.312 8.04297C42.1115 8.26628 41.9543 8.53743 41.8403 8.85645C41.7264 9.1709 41.6694 9.52181 41.6694 9.90918V13.9287H40.5278V6.43652H41.4712L41.5942 7.81738H41.6421C41.797 7.53939 41.9839 7.28646 42.2026 7.05859C42.4214 6.82617 42.6743 6.6416 42.9614 6.50488C43.2531 6.36816 43.5767 6.2998 43.9321 6.2998Z" fill="black"/>
<path d="M49.1411 6.2998C49.7791 6.2998 50.326 6.44108 50.7817 6.72363C51.2375 7.00618 51.5861 7.40267 51.8276 7.91309C52.0692 8.41895 52.1899 9.01139 52.1899 9.69043V10.3945H47.0151C47.0288 11.2741 47.2476 11.944 47.6714 12.4043C48.0952 12.8646 48.6922 13.0947 49.4624 13.0947C49.9364 13.0947 50.3556 13.0514 50.7202 12.9648C51.0848 12.8783 51.4631 12.7507 51.855 12.582V13.5801C51.4767 13.7487 51.1007 13.8717 50.7271 13.9492C50.3579 14.0267 49.9204 14.0654 49.4146 14.0654C48.6945 14.0654 48.0656 13.9196 47.5278 13.6279C46.9946 13.3317 46.5799 12.8988 46.2837 12.3291C45.9875 11.7594 45.8394 11.0622 45.8394 10.2373C45.8394 9.43066 45.9738 8.7334 46.2427 8.14551C46.5161 7.55306 46.8989 7.09733 47.3911 6.77832C47.8879 6.45931 48.4712 6.2998 49.1411 6.2998ZM49.1274 7.22949C48.5213 7.22949 48.0382 7.42773 47.6782 7.82422C47.3182 8.2207 47.104 8.77441 47.0356 9.48535H51.0005C50.9959 9.03874 50.9253 8.64681 50.7886 8.30957C50.6564 7.96777 50.4536 7.70345 50.1802 7.5166C49.9067 7.3252 49.5558 7.22949 49.1274 7.22949Z" fill="black"/>
<path d="M57.6655 6.2998C58.5542 6.2998 59.2264 6.51855 59.6821 6.95605C60.1379 7.389 60.3657 8.08626 60.3657 9.04785V13.9287H59.2446V9.12305C59.2446 8.4987 59.1011 8.03158 58.814 7.72168C58.5314 7.41178 58.0962 7.25684 57.5083 7.25684C56.6789 7.25684 56.0955 7.49154 55.7583 7.96094C55.4211 8.43034 55.2524 9.11165 55.2524 10.0049V13.9287H54.1177V6.43652H55.0337L55.2046 7.5166H55.2661C55.4256 7.25228 55.6284 7.03125 55.8745 6.85352C56.1206 6.67122 56.3963 6.53451 56.7017 6.44336C57.007 6.34766 57.3283 6.2998 57.6655 6.2998Z" fill="black"/>
<path d="M65.1235 13.1357C65.3104 13.1357 65.5018 13.1198 65.6978 13.0879C65.8937 13.056 66.0532 13.0173 66.1763 12.9717V13.8535C66.0441 13.9128 65.8595 13.9629 65.6226 14.0039C65.3901 14.0449 65.1623 14.0654 64.939 14.0654C64.5425 14.0654 64.1825 13.9971 63.8589 13.8604C63.5353 13.7191 63.2756 13.4821 63.0796 13.1494C62.8882 12.8167 62.7925 12.3564 62.7925 11.7686V7.3252H61.7261V6.77148L62.7993 6.32715L63.2505 4.7002H63.9341V6.43652H66.1284V7.3252H63.9341V11.7344C63.9341 12.2038 64.0412 12.5547 64.2554 12.7871C64.4741 13.0195 64.7635 13.1357 65.1235 13.1357Z" fill="black"/>
<rect x="90.1763" y="2" width="16" height="16" rx="3" fill="#1E71F6"/>
<path d="M101.656 5.34229C101.917 4.98299 102.436 4.89197 102.815 5.13899C103.194 5.386 103.29 5.87751 103.03 6.2368L96.9186 14.6578C96.5846 15.118 95.8655 15.1132 95.5385 14.6485L93.3163 11.4906C93.061 11.1278 93.1645 10.6376 93.5474 10.3958C93.9304 10.1539 94.4478 10.252 94.703 10.6147L96.2425 12.8024L101.656 5.34229Z" fill="white"/>
<path d="M120.465 11.5908C120.465 12.1833 120.317 12.6891 120.021 13.1084C119.729 13.5231 119.319 13.8398 118.791 14.0586C118.262 14.2773 117.64 14.3867 116.924 14.3867C116.546 14.3867 116.188 14.3685 115.851 14.332C115.514 14.2956 115.204 14.2432 114.921 14.1748C114.639 14.1064 114.39 14.0221 114.176 13.9219V12.8076C114.518 12.9489 114.935 13.0811 115.427 13.2041C115.919 13.3226 116.434 13.3818 116.972 13.3818C117.473 13.3818 117.897 13.3158 118.244 13.1836C118.59 13.0469 118.852 12.8532 119.03 12.6025C119.212 12.3473 119.303 12.042 119.303 11.6865C119.303 11.3447 119.228 11.0599 119.078 10.832C118.927 10.5996 118.677 10.39 118.326 10.2031C117.979 10.0117 117.505 9.80892 116.904 9.59473C116.48 9.44434 116.106 9.28027 115.783 9.10254C115.459 8.92025 115.188 8.71517 114.969 8.4873C114.75 8.25944 114.584 7.99512 114.47 7.69434C114.361 7.39355 114.306 7.04948 114.306 6.66211C114.306 6.12891 114.441 5.67318 114.709 5.29492C114.983 4.91211 115.359 4.62044 115.837 4.41992C116.32 4.21484 116.874 4.1123 117.499 4.1123C118.032 4.1123 118.524 4.16243 118.975 4.2627C119.431 4.36296 119.848 4.4974 120.226 4.66602L119.864 5.66406C119.504 5.51367 119.121 5.38835 118.715 5.28809C118.314 5.18783 117.9 5.1377 117.471 5.1377C117.043 5.1377 116.681 5.2015 116.384 5.3291C116.093 5.45215 115.869 5.6276 115.714 5.85547C115.559 6.08333 115.482 6.35449 115.482 6.66895C115.482 7.01986 115.555 7.31152 115.701 7.54395C115.851 7.77637 116.088 7.98372 116.412 8.16602C116.74 8.34375 117.173 8.5306 117.71 8.72656C118.298 8.94076 118.797 9.16862 119.208 9.41016C119.618 9.64714 119.93 9.9388 120.144 10.2852C120.358 10.627 120.465 11.0622 120.465 11.5908Z" fill="black"/>
<path d="M124.758 13.457C124.945 13.457 125.137 13.4411 125.333 13.4092C125.528 13.3773 125.688 13.3385 125.811 13.293V14.1748C125.679 14.234 125.494 14.2842 125.257 14.3252C125.025 14.3662 124.797 14.3867 124.574 14.3867C124.177 14.3867 123.817 14.3184 123.494 14.1816C123.17 14.0404 122.91 13.8034 122.714 13.4707C122.523 13.138 122.427 12.6777 122.427 12.0898V7.64648H121.361V7.09277L122.434 6.64844L122.885 5.02148H123.569V6.75781H125.763V7.64648H123.569V12.0557C123.569 12.5251 123.676 12.876 123.89 13.1084C124.109 13.3408 124.398 13.457 124.758 13.457Z" fill="black"/>
<path d="M133.515 6.75781V14.25H132.585L132.421 13.1973H132.36C132.205 13.457 132.004 13.6758 131.758 13.8535C131.512 14.0312 131.234 14.1634 130.924 14.25C130.619 14.3411 130.293 14.3867 129.947 14.3867C129.354 14.3867 128.858 14.291 128.457 14.0996C128.056 13.9082 127.752 13.612 127.547 13.2109C127.347 12.8099 127.247 12.2949 127.247 11.666V6.75781H128.395V11.584C128.395 12.2083 128.536 12.6755 128.819 12.9854C129.101 13.2907 129.532 13.4434 130.111 13.4434C130.667 13.4434 131.109 13.3385 131.437 13.1289C131.77 12.9193 132.009 12.6117 132.155 12.2061C132.301 11.7959 132.374 11.2946 132.374 10.7021V6.75781H133.515Z" fill="black"/>
<path d="M138.581 14.3867C137.633 14.3867 136.881 14.0632 136.325 13.416C135.773 12.7689 135.498 11.8073 135.498 10.5312C135.498 9.24154 135.78 8.26855 136.345 7.6123C136.91 6.9515 137.662 6.62109 138.601 6.62109C138.998 6.62109 139.344 6.6735 139.64 6.77832C139.936 6.88314 140.192 7.02441 140.406 7.20215C140.62 7.37533 140.8 7.57357 140.946 7.79688H141.028C141.01 7.6556 140.991 7.46191 140.973 7.21582C140.955 6.96973 140.946 6.76921 140.946 6.61426V3.61328H142.081V14.25H141.165L140.994 13.1836H140.946C140.805 13.4069 140.625 13.6097 140.406 13.792C140.192 13.9743 139.934 14.1201 139.633 14.2295C139.337 14.3343 138.986 14.3867 138.581 14.3867ZM138.758 13.4434C139.56 13.4434 140.128 13.2155 140.46 12.7598C140.793 12.304 140.959 11.6273 140.959 10.7295V10.5244C140.959 9.57194 140.8 8.84049 140.481 8.33008C140.167 7.81966 139.592 7.56445 138.758 7.56445C138.061 7.56445 137.539 7.83333 137.193 8.37109C136.847 8.9043 136.673 9.63346 136.673 10.5586C136.673 11.4792 136.844 12.1901 137.186 12.6914C137.532 13.1927 138.056 13.4434 138.758 13.4434Z" fill="black"/>
<path d="M147.372 6.62109C148.01 6.62109 148.556 6.76237 149.012 7.04492C149.468 7.32747 149.817 7.72396 150.058 8.23438C150.3 8.74023 150.42 9.33268 150.42 10.0117V10.7158H145.246C145.259 11.5954 145.478 12.2653 145.902 12.7256C146.326 13.1859 146.923 13.416 147.693 13.416C148.167 13.416 148.586 13.3727 148.951 13.2861C149.315 13.1995 149.694 13.0719 150.085 12.9033V13.9014C149.707 14.07 149.331 14.193 148.958 14.2705C148.588 14.348 148.151 14.3867 147.645 14.3867C146.925 14.3867 146.296 14.2409 145.758 13.9492C145.225 13.653 144.81 13.2201 144.514 12.6504C144.218 12.0807 144.07 11.3835 144.07 10.5586C144.07 9.75195 144.204 9.05469 144.473 8.4668C144.747 7.87435 145.129 7.41862 145.622 7.09961C146.118 6.7806 146.702 6.62109 147.372 6.62109ZM147.358 7.55078C146.752 7.55078 146.269 7.74902 145.909 8.14551C145.549 8.54199 145.334 9.0957 145.266 9.80664H149.231C149.226 9.36003 149.156 8.9681 149.019 8.63086C148.887 8.28906 148.684 8.02474 148.411 7.83789C148.137 7.64648 147.786 7.55078 147.358 7.55078Z" fill="black"/>
<path d="M155.896 6.62109C156.785 6.62109 157.457 6.83984 157.913 7.27734C158.368 7.71029 158.596 8.40755 158.596 9.36914V14.25H157.475V9.44434C157.475 8.81999 157.332 8.35286 157.044 8.04297C156.762 7.73307 156.327 7.57812 155.739 7.57812C154.909 7.57812 154.326 7.81283 153.989 8.28223C153.652 8.75163 153.483 9.43294 153.483 10.3262V14.25H152.348V6.75781H153.264L153.435 7.83789H153.497C153.656 7.57357 153.859 7.35254 154.105 7.1748C154.351 6.99251 154.627 6.85579 154.932 6.76465C155.237 6.66895 155.559 6.62109 155.896 6.62109Z" fill="black"/>
<path d="M163.354 13.457C163.541 13.457 163.732 13.4411 163.928 13.4092C164.124 13.3773 164.284 13.3385 164.407 13.293V14.1748C164.275 14.234 164.09 14.2842 163.853 14.3252C163.621 14.3662 163.393 14.3867 163.169 14.3867C162.773 14.3867 162.413 14.3184 162.089 14.1816C161.766 14.0404 161.506 13.8034 161.31 13.4707C161.119 13.138 161.023 12.6777 161.023 12.0898V7.64648H159.957V7.09277L161.03 6.64844L161.481 5.02148H162.165V6.75781H164.359V7.64648H162.165V12.0557C162.165 12.5251 162.272 12.876 162.486 13.1084C162.705 13.3408 162.994 13.457 163.354 13.457Z" fill="black"/>
<rect x="188.407" y="2" width="16" height="16" rx="3" fill="#1E71F6"/>
<path d="M199.887 5.34229C200.147 4.98299 200.666 4.89197 201.045 5.13899C201.425 5.386 201.521 5.87751 201.26 6.2368L195.149 14.6578C194.815 15.118 194.096 15.1132 193.769 14.6485L191.547 11.4906C191.291 11.1278 191.395 10.6376 191.778 10.3958C192.161 10.1539 192.678 10.252 192.934 10.6147L194.473 12.8024L199.887 5.34229Z" fill="white"/>
<path d="M216.72 13.9287H215.551V4.95996H212.407V3.93457H219.851V4.95996H216.72V13.9287Z" fill="black"/>
<path d="M227.377 6.43652V13.9287H226.448L226.284 12.876H226.222C226.067 13.1357 225.867 13.3545 225.621 13.5322C225.375 13.71 225.097 13.8421 224.787 13.9287C224.481 14.0199 224.155 14.0654 223.809 14.0654C223.217 14.0654 222.72 13.9697 222.319 13.7783C221.918 13.5869 221.615 13.2907 221.41 12.8896C221.209 12.4886 221.109 11.9736 221.109 11.3447V6.43652H222.257V11.2627C222.257 11.887 222.399 12.3542 222.681 12.6641C222.964 12.9694 223.394 13.1221 223.973 13.1221C224.529 13.1221 224.971 13.0173 225.299 12.8076C225.632 12.598 225.871 12.2904 226.017 11.8848C226.163 11.4746 226.236 10.9733 226.236 10.3809V6.43652H227.377Z" fill="black"/>
<path d="M232.197 13.1357C232.384 13.1357 232.575 13.1198 232.771 13.0879C232.967 13.056 233.126 13.0173 233.25 12.9717V13.8535C233.117 13.9128 232.933 13.9629 232.696 14.0039C232.463 14.0449 232.236 14.0654 232.012 14.0654C231.616 14.0654 231.256 13.9971 230.932 13.8604C230.609 13.7191 230.349 13.4821 230.153 13.1494C229.961 12.8167 229.866 12.3564 229.866 11.7686V7.3252H228.799V6.77148L229.873 6.32715L230.324 4.7002H231.007V6.43652H233.202V7.3252H231.007V11.7344C231.007 12.2038 231.114 12.5547 231.329 12.7871C231.547 13.0195 231.837 13.1357 232.197 13.1357Z" fill="black"/>
<path d="M241.227 10.1689C241.227 10.7842 241.147 11.3333 240.988 11.8164C240.828 12.2995 240.598 12.7074 240.297 13.04C239.997 13.3727 239.632 13.6279 239.204 13.8057C238.78 13.9788 238.299 14.0654 237.761 14.0654C237.26 14.0654 236.8 13.9788 236.38 13.8057C235.966 13.6279 235.606 13.3727 235.3 13.04C235 12.7074 234.765 12.2995 234.596 11.8164C234.432 11.3333 234.35 10.7842 234.35 10.1689C234.35 9.34863 234.489 8.65137 234.767 8.07715C235.045 7.49837 235.442 7.05859 235.957 6.75781C236.476 6.45247 237.094 6.2998 237.809 6.2998C238.493 6.2998 239.09 6.45247 239.6 6.75781C240.115 7.06315 240.514 7.50521 240.796 8.08398C241.083 8.6582 241.227 9.35319 241.227 10.1689ZM235.526 10.1689C235.526 10.7705 235.606 11.2923 235.765 11.7344C235.925 12.1764 236.171 12.5182 236.503 12.7598C236.836 13.0013 237.264 13.1221 237.789 13.1221C238.308 13.1221 238.734 13.0013 239.067 12.7598C239.404 12.5182 239.653 12.1764 239.812 11.7344C239.972 11.2923 240.051 10.7705 240.051 10.1689C240.051 9.57194 239.972 9.05697 239.812 8.62402C239.653 8.18652 239.406 7.84928 239.074 7.6123C238.741 7.37533 238.31 7.25684 237.782 7.25684C237.002 7.25684 236.431 7.51432 236.066 8.0293C235.706 8.54427 235.526 9.25749 235.526 10.1689Z" fill="black"/>
<path d="M246.593 6.2998C246.744 6.2998 246.901 6.30892 247.065 6.32715C247.229 6.34082 247.375 6.36133 247.502 6.38867L247.359 7.44141C247.236 7.40951 247.099 7.38444 246.949 7.36621C246.798 7.34798 246.657 7.33887 246.525 7.33887C246.224 7.33887 245.939 7.40039 245.67 7.52344C245.406 7.64193 245.174 7.8151 244.973 8.04297C244.773 8.26628 244.615 8.53743 244.501 8.85645C244.388 9.1709 244.331 9.52181 244.331 9.90918V13.9287H243.189V6.43652H244.132L244.255 7.81738H244.303C244.458 7.53939 244.645 7.28646 244.864 7.05859C245.083 6.82617 245.335 6.6416 245.623 6.50488C245.914 6.36816 246.238 6.2998 246.593 6.2998Z" fill="black"/>
</svg>

<svg width="248" height="18" fill="none" xmlns="http://www.w3.org/2000/svg"><rect x=".5" y="2" width="16" height="16" rx="3" fill="#1E71F6"/><path d="M11.98 5.34a.86.86 0 0 1 1.16-.2c.38.25.47.74.21 1.1l-6.11 8.42a.86.86 0 0 1-1.38-.01l-2.22-3.16a.76.76 0 0 1 .23-1.1.86.86 0 0 1 1.15.22l1.54 2.2 5.42-7.47Z" fill="#fff"/><path d="M27.1 3.93c1.3 0 2.24.26 2.83.76.6.5.9 1.22.9 2.16 0 .43-.07.83-.21 1.21-.14.38-.36.72-.67 1-.31.3-.72.52-1.23.7a6 6 0 0 1-1.84.24h-1.22v3.93H24.5v-10h2.6Zm-.1 1h-1.34V9h1.09a5.5 5.5 0 0 0 1.59-.2c.43-.14.75-.36.96-.67.22-.3.32-.72.32-1.23 0-.66-.2-1.16-.63-1.48-.43-.33-1.09-.5-1.99-.5Zm8.55 1.38c.9 0 1.56.2 2 .6.42.4.64 1.05.64 1.93v5.09h-.83l-.22-1.1h-.05c-.21.26-.43.5-.66.68-.22.18-.49.32-.79.42a3.76 3.76 0 0 1-2.31-.1 1.9 1.9 0 0 1-.83-.73 2.3 2.3 0 0 1-.3-1.23c0-.75.3-1.32.88-1.72.6-.4 1.5-.62 2.71-.66l1.3-.05v-.46c0-.65-.15-1.1-.42-1.36a1.66 1.66 0 0 0-1.18-.4c-.4 0-.77.07-1.12.18-.36.11-.7.25-1.01.4L33 6.94a6.24 6.24 0 0 1 2.54-.63Zm1.52 3.93-1.14.05c-.94.03-1.6.18-1.98.45-.38.27-.57.65-.57 1.14 0 .43.13.75.39.96.26.2.6.3 1.03.3a2.4 2.4 0 0 0 1.63-.55c.43-.37.64-.92.64-1.66v-.7Zm6.86-3.94a4.28 4.28 0 0 1 .91.09l-.14 1.05a3.15 3.15 0 0 0-.84-.1 2.03 2.03 0 0 0-1.55.7c-.2.23-.36.5-.47.82-.11.31-.17.66-.17 1.05v4.02h-1.14v-7.5h.94l.12 1.39h.05c.16-.28.34-.53.56-.76a2.26 2.26 0 0 1 1.73-.76Zm5.21 0a2.74 2.74 0 0 1 2.69 1.61c.24.5.36 1.1.36 1.78v.7h-5.17c0 .88.23 1.55.65 2.01.43.46 1.02.7 1.8.7a5.47 5.47 0 0 0 2.38-.52v1a5.53 5.53 0 0 1-2.44.49 3.9 3.9 0 0 1-1.88-.44c-.54-.3-.95-.73-1.25-1.3a4.5 4.5 0 0 1-.44-2.1 5 5 0 0 1 .4-2.08c.28-.6.66-1.05 1.15-1.37.5-.32 1.08-.48 1.75-.48Zm-.01.93c-.6 0-1.1.2-1.45.6-.36.4-.58.94-.64 1.66H51c0-.45-.07-.84-.21-1.18-.13-.34-.34-.6-.61-.8a1.8 1.8 0 0 0-1.05-.28Zm8.54-.93c.88 0 1.56.22 2.01.66.46.43.69 1.13.69 2.09v4.88h-1.13v-4.8c0-.63-.14-1.1-.43-1.4-.28-.32-.71-.47-1.3-.47-.83 0-1.41.23-1.75.7-.34.47-.5 1.15-.5 2.04v3.93h-1.14v-7.5h.91l.17 1.09h.07c.16-.27.36-.49.6-.67a3.2 3.2 0 0 1 1.8-.55Zm7.45 6.84a3.57 3.57 0 0 0 1.06-.17v.88a3.93 3.93 0 0 1-1.24.21c-.4 0-.76-.06-1.08-.2a1.67 1.67 0 0 1-.78-.71 2.7 2.7 0 0 1-.29-1.38V7.33h-1.06v-.56l1.07-.44.45-1.63h.68v1.74h2.2v.89h-2.2v4.4c0 .47.11.82.33 1.06.21.23.5.35.86.35Z" fill="#000"/><rect x="90.18" y="2" width="16" height="16" rx="3" fill="#1E71F6"/><path d="M101.66 5.34a.86.86 0 0 1 1.16-.2c.37.25.47.74.21 1.1l-6.11 8.42a.86.86 0 0 1-1.38-.01l-2.22-3.16a.76.76 0 0 1 .23-1.1.86.86 0 0 1 1.15.22l1.54 2.2 5.42-7.47Z" fill="#fff"/><path d="M120.47 11.6a2.5 2.5 0 0 1-.45 1.5c-.3.42-.7.74-1.23.96-.53.22-1.15.33-1.87.33a9.98 9.98 0 0 1-2-.22 3.97 3.97 0 0 1-.74-.25v-1.11a6.99 6.99 0 0 0 2.79.57c.5 0 .93-.06 1.27-.2.35-.13.61-.33.79-.58.18-.25.27-.56.27-.91s-.07-.63-.22-.86c-.15-.23-.4-.44-.75-.63s-.83-.4-1.43-.6a7.6 7.6 0 0 1-1.12-.5 3.5 3.5 0 0 1-.81-.61 2.3 2.3 0 0 1-.5-.8c-.1-.3-.16-.64-.16-1.03a2.3 2.3 0 0 1 1.53-2.24c.48-.2 1.03-.3 1.66-.3a6.8 6.8 0 0 1 2.73.55l-.37 1a7.87 7.87 0 0 0-1.14-.38 5.1 5.1 0 0 0-1.25-.15c-.43 0-.79.06-1.09.19-.29.12-.51.3-.67.53-.15.22-.23.5-.23.8 0 .36.08.65.22.88.15.24.39.44.71.63.33.17.76.36 1.3.56.59.21 1.09.44 1.5.68a2.34 2.34 0 0 1 1.26 2.18Zm4.29 1.86a3.58 3.58 0 0 0 1.05-.17v.88a3.92 3.92 0 0 1-1.24.21c-.4 0-.75-.06-1.08-.2a1.67 1.67 0 0 1-.78-.7c-.19-.34-.28-.8-.28-1.39V7.65h-1.07v-.56l1.07-.44.45-1.63h.69v1.74h2.2v.89h-2.2v4.4c0 .48.1.83.32 1.06.22.23.5.35.87.35Zm8.75-6.7v7.49h-.92l-.17-1.05h-.06a2.2 2.2 0 0 1-.6.65 3.08 3.08 0 0 1-1.81.54c-.6 0-1.1-.1-1.5-.29-.4-.2-.7-.49-.9-.89-.2-.4-.3-.92-.3-1.54V6.76h1.15v4.82c0 .63.14 1.1.42 1.4.28.31.71.46 1.3.46.55 0 .99-.1 1.32-.31.33-.21.57-.52.72-.92.14-.41.21-.92.21-1.5V6.75h1.14Zm5.07 7.63c-.95 0-1.7-.33-2.26-.97-.55-.65-.82-1.61-.82-2.89 0-1.29.28-2.26.84-2.92a2.83 2.83 0 0 1 2.26-.99 3 3 0 0 1 1.04.16 2.49 2.49 0 0 1 1.3 1.02h.09a11.3 11.3 0 0 1-.08-1.19v-3h1.13v10.64h-.92l-.17-1.07h-.04a2.6 2.6 0 0 1-2.37 1.2Zm.18-.95c.8 0 1.37-.22 1.7-.68.33-.46.5-1.13.5-2.03v-.2c0-.96-.16-1.69-.48-2.2-.31-.51-.89-.77-1.72-.77-.7 0-1.22.27-1.57.81a3.99 3.99 0 0 0-.52 2.19c0 .92.17 1.63.52 2.13.34.5.87.75 1.57.75Zm8.61-6.82c.64 0 1.19.14 1.64.42.46.29.8.68 1.05 1.2.24.5.36 1.1.36 1.77v.7h-5.17c0 .89.23 1.56.65 2.02.43.46 1.02.69 1.8.69a5.48 5.48 0 0 0 2.39-.52v1a5.53 5.53 0 0 1-2.44.49 3.9 3.9 0 0 1-1.9-.44c-.53-.3-.94-.73-1.24-1.3a4.5 4.5 0 0 1-.44-2.1 5 5 0 0 1 .4-2.08c.28-.6.66-1.05 1.15-1.37.5-.32 1.08-.48 1.75-.48Zm-.01.93c-.6 0-1.1.2-1.45.6-.36.4-.58.95-.64 1.66h3.96c0-.45-.07-.84-.21-1.18a1.8 1.8 0 0 0-.6-.8 1.8 1.8 0 0 0-1.06-.28Zm8.54-.93c.88 0 1.56.22 2.01.66.46.43.69 1.13.69 2.09v4.88h-1.13v-4.8c0-.63-.14-1.1-.43-1.4-.28-.32-.71-.47-1.3-.47-.83 0-1.41.23-1.75.7-.34.47-.5 1.15-.5 2.05v3.92h-1.14v-7.5h.91l.18 1.09h.06c.16-.27.36-.49.6-.67a3.2 3.2 0 0 1 1.8-.55Zm7.45 6.84a3.57 3.57 0 0 0 1.06-.17v.88a3.93 3.93 0 0 1-1.24.21c-.4 0-.76-.06-1.08-.2a1.67 1.67 0 0 1-.78-.7c-.2-.34-.29-.8-.29-1.39V7.65h-1.06v-.56l1.07-.44.45-1.63h.69v1.74h2.19v.89h-2.2v4.4c0 .48.11.83.33 1.06.22.23.5.35.86.35Z" fill="#000"/><rect x="188.41" y="2" width="16" height="16" rx="3" fill="#1E71F6"/><path d="M199.89 5.34a.86.86 0 0 1 1.16-.2c.38.25.47.74.21 1.1l-6.11 8.42a.86.86 0 0 1-1.38-.01l-2.22-3.16a.76.76 0 0 1 .23-1.1.86.86 0 0 1 1.15.22l1.54 2.2 5.42-7.47Z" fill="#fff"/><path d="M216.72 13.93h-1.17V4.96h-3.14V3.93h7.44v1.03h-3.13v8.97Zm10.66-7.49v7.49h-.93l-.17-1.05h-.06c-.15.26-.35.47-.6.65a2.6 2.6 0 0 1-.83.4c-.3.09-.63.14-.98.14-.6 0-1.09-.1-1.5-.3-.4-.18-.7-.48-.9-.88-.2-.4-.3-.92-.3-1.55v-4.9h1.15v4.82c0 .63.14 1.1.42 1.4.28.3.71.46 1.3.46.55 0 1-.1 1.32-.31.33-.21.57-.52.72-.93.14-.4.22-.9.22-1.5V6.44h1.14Zm4.82 6.7a3.57 3.57 0 0 0 1.05-.17v.88a3.93 3.93 0 0 1-1.24.21c-.4 0-.75-.06-1.08-.2a1.68 1.68 0 0 1-.78-.71c-.19-.33-.28-.8-.28-1.38V7.33h-1.07v-.56l1.07-.44.45-1.63h.69v1.74h2.2v.89H231v4.4c0 .47.1.82.32 1.06.22.23.5.35.87.35Zm9.03-2.97a5.3 5.3 0 0 1-.24 1.65c-.16.48-.4.89-.7 1.22a3 3 0 0 1-1.09.77c-.42.17-.9.26-1.44.26a3.13 3.13 0 0 1-3.16-2.25 5.11 5.11 0 0 1-.25-1.65c0-.82.14-1.52.42-2.1.27-.57.67-1.01 1.19-1.31.52-.3 1.13-.46 1.85-.46.68 0 1.28.15 1.79.46.52.3.91.75 1.2 1.32.28.58.43 1.27.43 2.09Zm-5.7 0c0 .6.08 1.12.23 1.56.17.45.41.79.74 1.03.34.24.76.36 1.29.36.52 0 .94-.12 1.28-.36.33-.24.58-.58.74-1.03.16-.44.24-.96.24-1.56 0-.6-.08-1.11-.24-1.55a2 2 0 0 0-.74-1 2.18 2.18 0 0 0-1.29-.36c-.78 0-1.35.25-1.71.77a3.69 3.69 0 0 0-.54 2.14ZM246.6 6.3a4.27 4.27 0 0 1 .9.09l-.14 1.05a3.16 3.16 0 0 0-.84-.1 2.03 2.03 0 0 0-1.55.7c-.2.23-.35.5-.47.82a3.1 3.1 0 0 0-.17 1.05v4.02h-1.14v-7.5h.94l.13 1.39h.04c.16-.28.34-.53.56-.76a2.26 2.26 0 0 1 1.73-.76Z" fill="#000"/></svg>
